svgs/thin/jet-fighter-up.svg

<svg xmlns="http://www.w3.org/2000/svg" viewBox="0 0 512 512"><!--! Font Awesome Pro 6.6.0 by @fontawesome - https://fontawesome.com License - https://fontawesome.com/license (Commercial License) Copyright 2024 Fonticons, Inc. --><path d="M263.2 4.6C261.9 1.8 259.1 0 256 0s-5.9 1.8-7.2 4.6L190.9 127.6c-4.5 9.6-6.9 20.1-6.9 30.7l0 57.7c-1.4 0-2.8 .4-4.1 1.1L16 314l0-50c0-4.4-3.6-8-8-8s-8 3.6-8 8l0 64s0 0 0 0l0 48 0 32c0 4.4 3.6 8 8 8s8-3.6 8-8l0-24 168 0 0 5.1-50.5 61.4c-3.5 4.3-5.5 9.7-5.5 15.3l0 22.3c0 13.3 10.7 24 24 24l104 0 104 0c13.3 0 24-10.7 24-24l0-22.3c0-5.6-1.9-11-5.5-15.3L328 389.1l0-5.1 168 0 0 24c0 4.4 3.6 8 8 8s8-3.6 8-8l0-32 0-48 0-64c0-4.4-3.6-8-8-8s-8 3.6-8 8l0 50L332.1 217.1c-1.3-.8-2.7-1.1-4.1-1.1l0-57.7c0-10.6-2.3-21.1-6.9-30.7L263.2 4.6zM264 496l0-80c0-4.4-3.6-8-8-8s-8 3.6-8 8l0 80-96 0c-4.4 0-8-3.6-8-8l0-22.3c0-1.9 .6-3.7 1.8-5.1l52.4-63.6c1.2-1.4 1.8-3.2 1.8-5.1l0-233.7c0-8.2 1.8-16.4 5.3-23.8L256 26.8l50.7 107.7c3.5 7.5 5.3 15.6 5.3 23.8L312 392c0 1.9 .6 3.7 1.8 5.1l52.4 63.6c1.2 1.4 1.8 3.2 1.8 5.1l0 22.3c0 4.4-3.6 8-8 8l-96 0zM496 368l-168 0 0-134.7 168 99.3 0 35.4zm-312 0L16 368l0-35.4 168-99.3L184 368z"/></svg>

<svg xmlns="http://www.w3.org/2000/svg" viewBox="0 0 512 512"><!--! Font Awesome Pro 6.4.0 by @fontawesome - https://fontawesome.com License - https://fontawesome.com/license (Commercial License) Copyright 2023 Fonticons, Inc. --><path d="M263.2 4.6C261.9 1.8 259.1 0 256 0s-5.9 1.8-7.2 4.6L190.9 127.6c-4.5 9.6-6.9 20.1-6.9 30.7V216c-1.4 0-2.8 .4-4.1 1.1L16 314V264c0-4.4-3.6-8-8-8s-8 3.6-8 8v64l0 0v48l0 32c0 4.4 3.6 8 8 8s8-3.6 8-8V384H184v5.1l-50.5 61.4c-3.5 4.3-5.5 9.7-5.5 15.3V488c0 13.3 10.7 24 24 24H256 360c13.3 0 24-10.7 24-24V465.7c0-5.6-1.9-11-5.5-15.3L328 389.1V384H496v24c0 4.4 3.6 8 8 8s8-3.6 8-8V376 328 264c0-4.4-3.6-8-8-8s-8 3.6-8 8v50L332.1 217.1c-1.3-.8-2.7-1.1-4.1-1.1V158.3c0-10.6-2.3-21.1-6.9-30.7L263.2 4.6zM264 496V416c0-4.4-3.6-8-8-8s-8 3.6-8 8v80H152c-4.4 0-8-3.6-8-8V465.7c0-1.9 .6-3.7 1.8-5.1l52.4-63.6c1.2-1.4 1.8-3.2 1.8-5.1V158.3c0-8.2 1.8-16.4 5.3-23.8L256 26.8l50.7 107.7c3.5 7.5 5.3 15.6 5.3 23.8V392c0 1.9 .6 3.7 1.8 5.1l52.4 63.6c1.2 1.4 1.8 3.2 1.8 5.1V488c0 4.4-3.6 8-8 8H264zM496 368H328V233.3l168 99.3V368zm-312 0H16V332.6l168-99.3V368z"/></svg>
